src/assets/healthPage/MouthGuard/umbrella.svg

<svg height="125" viewBox="0 0 85 125" width="85" xmlns="http://www.w3.org/2000/svg"><g fill="#fff" opacity=".7"><circle cx="33" cy="55" r="7"/><path d="m18.74 0h-12.485a3.839 3.839 0 0 0 -3.995 3.8l-2.26 24.937a4.059 4.059 0 0 0 3.993 4.063h1.245l3.075 20.936a2.3 2.3 0 0 0 2.438 2.264h3.5a2.3 2.3 0 0 0 2.434-2.264l3.073-20.936h1.242a4.06 4.06 0 0 0 4-4.064l-2.265-24.936a3.838 3.838 0 0 0 -3.995-3.8z" transform="translate(48 69)"/><circle cx="60.5" cy="59.5" r="6.5"/><path d="m40.336 65.434a4.6 4.6 0 0 0 -1.33-.21h-13.33a4.1 4.1 0 0 0 -4.267 4.056l-2.417 16.37a4.336 4.336 0 0 0 4.267 4.339h1.331l3.282 32.6a2.453 2.453 0 0 0 2.6 2.414h3.738a2.453 2.453 0 0 0 2.6-2.414l3.29-32.599h1.331a4.336 4.336 0 0 0 4.268-4.339l-.268-1.811v-44.718c4.82.72 8.747 3.186 10.474 6.44h1.9c2.062-3.892 7.285-6.658 13.4-6.658s11.335 2.767 13.4 6.658h.395a42.406 42.406 0 0 0 -39.05-42.208 3.451 3.451 0 0 0 -6.9 0 42.409 42.409 0 0 0 -39.05 42.209h.4c2.064-3.892 7.283-6.663 13.4-6.663s11.338 2.767 13.4 6.658h1.9c1.816-3.423 6.076-5.974 11.238-6.538v26.41"/></g></svg>

<svg xmlns="http://www.w3.org/2000/svg" width="85" height="125" viewBox="0 0 85 125">
  <g id="noun_people_49950" opacity="0.7">
    <circle id="Oval" cx="7" cy="7" r="7" transform="translate(26 48)" fill="#fff"/>
    <path id="Path" d="M18.74,0H6.255A3.839,3.839,0,0,0,2.26,3.8L0,28.737A4.059,4.059,0,0,0,3.993,32.8H5.238L8.313,53.736A2.3,2.3,0,0,0,10.751,56h3.5a2.3,2.3,0,0,0,2.434-2.264L19.758,32.8H21a4.06,4.06,0,0,0,4-4.064L22.735,3.8A3.838,3.838,0,0,0,18.74,0Z" transform="translate(48 69)" fill="#fff"/>
    <circle id="Oval-2" data-name="Oval" cx="6.5" cy="6.5" r="6.5" transform="translate(54 53)" fill="#fff"/>
    <path id="Path-2" data-name="Path" d="M40.336,65.434a4.6,4.6,0,0,0-1.33-.21H25.676a4.1,4.1,0,0,0-4.267,4.056l-2.417,16.37a4.336,4.336,0,0,0,4.267,4.339H24.59l3.282,32.6a2.453,2.453,0,0,0,2.6,2.414H34.21a2.453,2.453,0,0,0,2.6-2.414L40.1,89.99h1.331a4.336,4.336,0,0,0,4.268-4.339l-.268-1.811V39.122c4.82.72,8.747,3.186,10.474,6.44h1.9c2.062-3.892,7.285-6.658,13.4-6.658s11.335,2.767,13.4,6.658H85A42.406,42.406,0,0,0,45.95,3.354a3.451,3.451,0,0,0-6.9,0A42.409,42.409,0,0,0,0,45.563H.4C2.464,41.671,7.683,38.9,13.8,38.9s11.338,2.767,13.4,6.658h1.9c1.816-3.423,6.076-5.974,11.238-6.538v26.41" fill="#fff"/>
  </g>
</svg>
